X: 6979
T: Chicago, The
R: jig
M: 6/8
K: Dmixolydian
|:{E} F2D DED|{E} F2{E}D DED|{E} F2D DED|~C3 GGG|
{E} F2D DED|{E} F2D DED|~B3 cAF|AGF G3:|
|:~B3 cde|dcB ABc|B2D ~G3|ADF AGF|
~B3 cde|dcB ABc|~B3 cAF|AGF G3:|

